X: 37621
T: Snee Da Neburd
R: reel
M: 4/4
K: Dmajor
DFAB AF A2|BdzF E4|DFAB AF A2|1 faef dz d2:|2 faef d2 e2||
f2 fa fd A2|fefa e3e|f2 fa fd A2|BABc d3 e|
f2 fa fd A2|fefa e2fg|afge fdec|dBAF D2 d2||

